assets/svg/icon_post_gallerypermission.svg

<svg width="37" height="37" viewBox="0 0 37 37" fill="none" xmlns="http://www.w3.org/2000/svg">
    <path
        d="M26.683 18.6718C26.683 19.8701 25.7224 20.8416 24.5374 20.8416C23.3523 20.8416 22.3917 19.8701 22.3917 18.6718C22.3917 17.4735 23.3523 16.502 24.5374 16.502C25.7224 16.502 26.683 17.4735 26.683 18.6718Z"
        fill="white" />
    <path fill-rule="evenodd" clip-rule="evenodd"
        d="M28.0475 11.2732C26.6711 11.0774 24.8972 11.0775 22.6861 11.0775H13.5147C11.3036 11.0775 9.52963 11.0774 8.15328 11.2732C6.72932 11.4757 5.54333 11.9103 4.6616 12.9287C3.77987 13.9472 3.51063 15.1934 3.50031 16.6476C3.49033 18.0531 3.72481 19.8312 4.01706 22.0476L4.60994 26.5442C4.83837 28.2769 5.02326 29.6793 5.31071 30.7775C5.60992 31.9206 6.05165 32.8683 6.88052 33.6021C7.7094 34.336 8.69672 34.6535 9.8567 34.8024C10.9711 34.9454 12.3702 34.9453 14.0988 34.9453H22.102C23.8306 34.9453 25.2297 34.9454 26.3441 34.8024C27.5041 34.6535 28.4914 34.336 29.3203 33.6021C30.1491 32.8683 30.5909 31.9206 30.8901 30.7775C31.1775 29.6793 31.3624 28.2769 31.5908 26.5442L32.1837 22.0476C32.476 19.8312 32.7105 18.0531 32.7005 16.6476C32.6902 15.1934 32.4209 13.9472 31.5392 12.9287C30.6574 11.9103 29.4715 11.4757 28.0475 11.2732ZM8.45212 13.4219C7.27288 13.5896 6.67643 13.8955 6.27595 14.358C5.87548 14.8206 5.65445 15.4589 5.64591 16.6631C5.63714 17.8982 5.84908 19.5248 6.15504 21.8453L6.23616 22.4606L6.83897 22.0191C8.39454 20.8798 10.6929 20.9358 12.1722 22.1741L17.6625 26.7696C18.1814 27.2039 19.0755 27.2851 19.7208 26.9055L20.1025 26.681C21.928 25.6071 24.3746 25.7204 26.0591 26.9893L29.0309 29.2281C29.1774 28.4241 29.3086 27.4357 29.4736 26.1849L30.0457 21.8453C30.3517 19.5248 30.5636 17.8982 30.5549 16.6631C30.5463 15.4589 30.3253 14.8206 29.9248 14.358C29.5243 13.8955 28.9279 13.5896 27.7487 13.4219C26.5392 13.2498 24.9168 13.2473 22.6018 13.2473H13.5989C11.284 13.2473 9.66153 13.2498 8.45212 13.4219Z"
        fill="white" />
    <path
        d="M13.0046 2.50001H23.1959C23.5353 2.49992 23.7955 2.49985 24.023 2.52457C25.6405 2.70037 26.9644 3.7809 27.5258 5.23637H8.67472C9.23613 3.7809 10.56 2.70037 12.1775 2.52457C12.405 2.49985 12.6652 2.49992 13.0046 2.50001Z"
        fill="white" />
    <path
        d="M9.79346 6.55566C7.76309 6.55566 6.09826 7.91795 5.54268 9.7252C5.53109 9.76288 5.51999 9.80075 5.50938 9.8388C6.09069 9.6432 6.69568 9.51542 7.30812 9.42818C8.88551 9.20349 10.879 9.20361 13.1946 9.20375L13.3676 9.20376L23.2574 9.20375C25.573 9.20361 27.5665 9.20349 29.1439 9.42818C29.7563 9.51542 30.3613 9.6432 30.9426 9.8388C30.932 9.80075 30.9209 9.76288 30.9093 9.7252C30.3537 7.91795 28.6889 6.55566 26.6585 6.55566H9.79346Z"
        fill="white" />
</svg>

<svg xmlns="http://www.w3.org/2000/svg" width="37" height="37" fill="none"><path fill="#fff" d="M26.683 18.672c0 1.198-.96 2.17-2.146 2.17s-2.145-.972-2.145-2.17.96-2.17 2.145-2.17 2.146.972 2.146 2.17"/><path fill="#fff" fill-rule="evenodd" d="M28.048 11.273c-1.377-.196-3.15-.195-5.362-.195h-9.171c-2.211 0-3.985 0-5.362.195-1.424.203-2.61.637-3.491 1.656S3.51 15.193 3.5 16.648c-.01 1.405.225 3.183.517 5.4l.593 4.496c.228 1.733.413 3.135.7 4.233.3 1.144.742 2.091 1.57 2.825.83.734 1.817 1.052 2.977 1.2 1.114.143 2.513.143 4.242.143h8.003c1.729 0 3.128 0 4.242-.143 1.16-.148 2.147-.466 2.976-1.2s1.27-1.681 1.57-2.824c.287-1.099.472-2.501.7-4.234l.594-4.496c.292-2.217.527-3.995.517-5.4-.01-1.455-.28-2.7-1.162-3.72-.882-1.018-2.068-1.452-3.492-1.655M8.452 13.422c-1.18.168-1.776.473-2.176.936s-.622 1.1-.63 2.305c-.009 1.235.203 2.862.509 5.182l.081.616.603-.442c1.556-1.14 3.854-1.083 5.333.155l5.49 4.596c.52.434 1.414.515 2.059.136l.381-.225c1.826-1.074 4.273-.96 5.957.308l2.972 2.24c.146-.805.278-1.793.443-3.044l.572-4.34c.306-2.32.518-3.947.509-5.182-.009-1.204-.23-1.842-.63-2.305s-.997-.768-2.176-.936c-1.21-.172-2.832-.175-5.147-.175h-9.003c-2.315 0-3.937.003-5.147.175" clip-rule="evenodd"/><path fill="#fff" d="M13.005 2.5h10.19c.34 0 .6 0 .828.025a4.26 4.26 0 0 1 3.503 2.711H8.675a4.26 4.26 0 0 1 3.502-2.711c.228-.025.488-.025.828-.025M9.793 6.556c-2.03 0-3.695 1.362-4.25 3.17l-.034.113a10 10 0 0 1 1.8-.41c1.577-.226 3.57-.225 5.886-.225h10.063c2.315 0 4.309 0 5.886.224.612.087 1.217.215 1.799.41l-.034-.113c-.555-1.807-2.22-3.17-4.25-3.17z"/></svg>
